X: 14513
T: Gan Ainm
R: jig
M: 6/8
K: Amajor
|:B|cAF E2 F|ABA Bce|d2B BAB|gfe dcB|
cAF E2 F|ABA Bce|dff cee|BcB A2:|
|:B|cBc ecA|cBc ecA|dcd fdB|dcd fdB|
cBc ecA|cBc ecA|dff cee|BcB A2:|

